X: 9
T: Haste to the Wedding
C: trad.
O: arr. by Tom Morley
R: jig
S: Fiddle Hell Online 2021-11-04
Z: 2022 John Chambers <jc:trillian.mit.edu>
M: 6/8
L: 1/8
K: D
uA |\
"D"vAFA Agf | "G"ede fdB | "D"AFA (AGF) | "A"GFG (EFG) |\
"D" AFA Agf | "G"ede fdB | "D"A2ug "A"faf | "D"(uded) d2 :|
|: a |\
"D"vafa afa | "G"bgb bgb | "D"afa (agf) | "A"gfg (efg) |\
"D"a3 f3 | "G"ede fdB | "D"A2ug "A"faf | "D"(uded) d2 :|


